packages/components/icon/src/assets/icons/drafts.svg

<svg width="24" height="24" viewBox="0 0 24 24" fill="none" xmlns="http://www.w3.org/2000/svg">
<path fill-rule="evenodd" clip-rule="evenodd" d="M6.86699 4.45351C6.86699 4.3812 6.90315 4.30888 6.97547 4.23657C7.93002 3.62913 8.92071 3.22417 9.94757 3.02169L10.0127 3C10.0994 3 10.1717 3.06508 10.2296 3.19525L10.4899 4.60537V4.64876C10.4899 4.70661 10.4718 4.75723 10.4357 4.80062C10.3995 4.84401 10.3525 4.87293 10.2947 4.8874C9.45583 5.08988 8.70377 5.40082 8.03848 5.82025C7.98063 5.84917 7.93724 5.86364 7.90832 5.86364C7.82154 5.86364 7.75646 5.82748 7.71307 5.75517L6.91038 4.58368C6.88146 4.52583 6.86699 4.48244 6.86699 4.45351ZM13.4403 4.8874C13.368 4.87293 13.3174 4.83678 13.2885 4.77893C13.2596 4.72107 13.2523 4.66322 13.2668 4.60537L13.5271 3.19525C13.5416 3.12293 13.5777 3.07231 13.6356 3.04339C13.6934 3.01446 13.7513 3.00723 13.8091 3.02169C14.8071 3.22417 15.7978 3.62913 16.7812 4.23657C16.8391 4.27996 16.8716 4.33419 16.8789 4.39928C16.8861 4.46436 16.8753 4.52583 16.8463 4.58368L16.0436 5.75517C16.0003 5.81302 15.946 5.84556 15.8809 5.85279C15.8159 5.86002 15.7544 5.84917 15.6965 5.82025C15.0457 5.40082 14.2937 5.08988 13.4403 4.8874ZM5.76059 7.70764C5.81844 7.75103 5.85098 7.80527 5.85821 7.87035C5.86544 7.93543 5.8546 7.9969 5.82567 8.05475C5.37732 8.76343 5.06638 9.51549 4.89282 10.311C4.84943 10.4556 4.75542 10.5134 4.6108 10.4845L3.20067 10.2242C3.14282 10.2097 3.0922 10.1772 3.04881 10.1265C3.00542 10.0759 2.99096 10.0145 3.00542 9.94215C3.25129 8.82851 3.66348 7.83781 4.24199 6.97004C4.27092 6.91219 4.31792 6.87965 4.38301 6.87242C4.44809 6.86519 4.50956 6.87603 4.56741 6.90496L5.76059 7.70764ZM17.931 8.05475C17.9021 7.9969 17.8877 7.95351 17.8877 7.92459C17.8877 7.85227 17.9238 7.77996 17.9961 7.70764L19.1676 6.90496C19.2255 6.87603 19.2689 6.86157 19.2978 6.86157C19.399 6.86157 19.4713 6.89773 19.5147 6.97004C20.1077 7.91013 20.5127 8.90082 20.7296 9.94215L20.7513 10.0072C20.7513 10.1229 20.6862 10.1952 20.556 10.2242L19.1459 10.4845H19.1025C19.0447 10.4845 18.9941 10.47 18.9507 10.4411C18.9073 10.4122 18.8784 10.3688 18.8639 10.311C18.6614 9.45764 18.3505 8.70558 17.931 8.05475ZM5.82567 15.7128C5.8546 15.7707 5.86906 15.814 5.86906 15.843C5.86906 15.9008 5.8329 15.9659 5.76059 16.0382L4.56741 16.8409C4.50956 16.8698 4.46617 16.8843 4.43724 16.8843C4.35046 16.8843 4.28538 16.8481 4.24199 16.7758C3.66348 15.8936 3.25129 14.9029 3.00542 13.8037V13.7603C3.00542 13.7025 3.0235 13.6519 3.05966 13.6085C3.09582 13.5651 3.14282 13.5362 3.20067 13.5217L4.6108 13.2614H4.65418C4.75542 13.2614 4.83497 13.3264 4.89282 13.4566C5.06637 14.2376 5.37732 14.9897 5.82567 15.7128ZM20.556 13.5217C20.6284 13.5362 20.679 13.5723 20.7079 13.6302C20.7368 13.688 20.7441 13.7459 20.7296 13.8037C20.5271 14.8306 20.1222 15.8213 19.5147 16.7758C19.4713 16.8337 19.4171 16.8662 19.352 16.8735C19.2869 16.8807 19.2255 16.8698 19.1676 16.8409L17.9961 16.0382C17.9383 15.9948 17.9021 15.9442 17.8877 15.8864C17.8732 15.8285 17.8877 15.7707 17.931 15.7128C18.3505 15.0475 18.6614 14.2955 18.8639 13.4566C18.8784 13.3988 18.9109 13.3481 18.9615 13.3048C19.0121 13.2614 19.0736 13.2469 19.1459 13.2614L20.556 13.5217ZM10.2947 18.8585C10.3525 18.8729 10.4032 18.9055 10.4465 18.9561C10.4899 19.0067 10.5044 19.0682 10.4899 19.1405L10.2296 20.5506C10.1717 20.7097 10.0777 20.7748 9.94757 20.7459C8.90625 20.5145 7.91555 20.1023 6.97547 19.5093C6.91761 19.4804 6.88146 19.4334 6.86699 19.3683C6.85253 19.3032 6.86699 19.2417 6.91038 19.1839L7.71307 17.9907C7.74199 17.9329 7.789 17.9003 7.85408 17.8931C7.91916 17.8858 7.98063 17.8967 8.03848 17.9256C8.76163 18.374 9.51368 18.6849 10.2947 18.8585ZM16.8897 19.3141C16.8897 19.4008 16.8536 19.4659 16.7813 19.5093C15.8122 20.1023 14.8215 20.5145 13.8091 20.7459H13.7658C13.7079 20.7459 13.6573 20.7278 13.6139 20.6916C13.5705 20.6555 13.5416 20.6085 13.5271 20.5506L13.2668 19.1405L13.2451 19.0754C13.2451 18.9597 13.3102 18.8874 13.4403 18.8585C14.2358 18.6849 14.9879 18.374 15.6965 17.9256C15.7544 17.8967 15.7978 17.8822 15.8267 17.8822C15.9279 17.8822 16.0003 17.9184 16.0436 17.9907L16.8463 19.1839C16.8753 19.2417 16.8897 19.2851 16.8897 19.3141Z" fill="currentColor"/>
</svg>

<svg viewBox="0 0 24 24" fill="none" xmlns="http://www.w3.org/2000/svg"><path fill-rule="evenodd" clip-rule="evenodd" d="M6.867 4.454c0-.073.036-.145.108-.217.955-.608 1.946-1.013 2.973-1.215L10.013 3c.086 0 .159.065.217.195l.26 1.41v.044a.23.23 0 0 1-.054.152.26.26 0 0 1-.141.086 7.493 7.493 0 0 0-2.257.933.333.333 0 0 1-.13.044.213.213 0 0 1-.195-.109L6.91 4.584a.333.333 0 0 1-.043-.13Zm6.573.433a.203.203 0 0 1-.151-.108.245.245 0 0 1-.022-.174l.26-1.41a.203.203 0 0 1 .109-.152.245.245 0 0 1 .173-.021c.998.202 1.989.607 2.972 1.215a.23.23 0 0 1 .098.162.324.324 0 0 1-.033.185l-.802 1.171a.23.23 0 0 1-.163.098.324.324 0 0 1-.184-.033c-.651-.42-1.403-.73-2.257-.933Zm-7.68 2.82a.23.23 0 0 1 .098.163.324.324 0 0 1-.032.185 6.974 6.974 0 0 0-.933 2.256c-.044.145-.138.202-.282.174l-1.41-.26a.29.29 0 0 1-.152-.098c-.044-.051-.058-.113-.044-.185.246-1.113.658-2.104 1.237-2.972a.17.17 0 0 1 .141-.098.324.324 0 0 1 .184.033l1.194.803Zm12.171.348a.333.333 0 0 1-.043-.13c0-.073.036-.145.108-.217l1.172-.803a.333.333 0 0 1 .13-.043c.101 0 .173.036.217.108a8.96 8.96 0 0 1 1.215 2.972l.021.065c0 .116-.065.188-.195.217l-1.41.26h-.044a.267.267 0 0 1-.151-.043.21.21 0 0 1-.087-.13c-.203-.853-.514-1.605-.933-2.256ZM5.826 15.713a.333.333 0 0 1 .043.13c0 .058-.036.123-.108.195l-1.194.803a.334.334 0 0 1-.13.043.213.213 0 0 1-.195-.108 8.917 8.917 0 0 1-1.237-2.972v-.044a.23.23 0 0 1 .055-.152.26.26 0 0 1 .14-.086l1.41-.26h.044c.101 0 .181.064.239.195.173.78.484 1.533.933 2.256Zm14.73-2.191c.072.014.123.05.152.108a.245.245 0 0 1 .022.174c-.203 1.027-.608 2.017-1.215 2.972a.23.23 0 0 1-.163.098.325.325 0 0 1-.184-.033l-1.172-.803a.273.273 0 0 1-.108-.152c-.015-.057 0-.115.043-.173.42-.665.73-1.417.933-2.256a.291.291 0 0 1 .098-.152c.05-.044.112-.058.184-.044l1.41.26Zm-10.261 5.336a.29.29 0 0 1 .152.098c.043.05.057.112.043.184l-.26 1.41c-.058.16-.152.225-.282.196a9.336 9.336 0 0 1-2.973-1.237.197.197 0 0 1-.108-.14.217.217 0 0 1 .043-.185l.803-1.193a.17.17 0 0 1 .141-.098.324.324 0 0 1 .184.033 7.28 7.28 0 0 0 2.257.933Zm6.595.456a.213.213 0 0 1-.109.195 9.916 9.916 0 0 1-2.972 1.237h-.043a.23.23 0 0 1-.152-.054.26.26 0 0 1-.087-.141l-.26-1.41-.022-.066c0-.115.065-.188.195-.216a6.973 6.973 0 0 0 2.257-.933.334.334 0 0 1 .13-.044c.1 0 .173.036.217.109l.802 1.193a.331.331 0 0 1 .044.13Z" fill="currentColor"/></svg>
